X: 1110
T:The Rakes of Clonmel (A50)
N: page A50
N: heptatonic
N: matches 444
S:Trad, arr. Paddy O'Brien
R:jig
E:10
I:speed 350
M:6/8
K:Ador
A/2B/2|"Am"cBA GED|EAA ~A2B|cBc Adc|\
"G"BGF GBd|gfg (4efge|dBG Bcd|
"Am"ecA "Em"GED|"Am"EAA ~A2:| a|aea aed|\
cAA Aef|"G"gfg (4efge|dBG GAB|
"Am"cBc "D"d^cd|"Am"edc "G"Bcd|"Am"ecA "G"GED|\
"Am"EAA A2:| B|~A2a aga|"G"bge "Am"~e2f|
"G"gfg bge|dBG GAB|\
"Am"cBc "G"d^cd|"Am"edc "G"Bcd|"Am"ecA "G"GED|"Am"EAA ~A2:|
